X: 5
T:Brenda Stubbert's Reel
M:C|
L:1/8
R:reel
Z:id:hn-reel-94
K:Am
B|(3AAA (BA) GAAB|(3AAA (BA) edde|(3GGG BA BGGB|c2 (BA) BGGB|
(3AAA (BA) GAAB|(3AAA (BA) edda|gedB GABd|e3 dB eAA:|
|:B| (3AAA a2 (3AAA g2|Aage agea|(3GGG BA BGGB|c2 (BA) BGGB|
[1 (3AAA a2 (3AAA g2|Aage agea|gedB GABd|e3 dB eAA:|
[2 (3AAA BA GAAB|(3AAA (BA) edda|gedB GABd|e3 dB eAA|GA7||
